img/agro-logo.svg

<svg width="81" height="80" viewBox="0 0 81 80" fill="none" xmlns="http://www.w3.org/2000/svg">
<path d="M81.0001 75.0816V3.39355C81.0001 -0.261138 80.4317 0.0199914 75.3159 0.0199914C74.54 -0.0249893 61.7107 0.0199914 60.9235 0.0199914C46.3236 0.0199914 35.0944 20.0139 33.9718 41.1183C32.8492 62.2228 53.9802 79.9958 60.9235 79.9958C61.7107 79.9958 75.9611 79.9086 76.7369 79.8608C80.4317 79.8608 81.0001 79.8608 81.0001 75.0816Z" fill="#E3E3E3"/>
<path d="M10.1064 60.0019C10.7061 63.9546 12.1272 65.931 13.4743 67.778C14.2275 68.8097 15.6457 70.7523 17.9649 71.1094C20.986 71.5761 23.4729 69.0318 24.7035 67.778C27.6792 64.7362 29.8875 59.6027 28.0714 56.6706C27.7758 56.1898 27.4944 55.7372 26.9487 55.5601C24.5585 54.787 21.4692 60.7835 19.0875 60.0019C18.6697 59.8642 18.6583 59.6449 17.9649 58.8915C15.8844 56.634 12.4114 54.7308 11.2262 55.5601C10.6294 55.979 9.69717 57.3256 10.1036 60.0019H10.1064Z" fill="#E3E3E3"/>
<path d="M11.4878 45.667C11.9851 48.9506 13.1646 50.5896 14.2844 52.1218C14.9097 52.9792 16.0891 54.5901 18.0133 54.8881C20.5228 55.2761 22.5862 53.1648 23.6065 52.1218C26.0763 49.5972 27.9095 45.3325 26.4031 42.8979C26.1559 42.4987 25.9228 42.122 25.4709 41.9758C23.4871 41.332 20.9207 46.3136 18.9455 45.6642C18.5987 45.549 18.5902 45.369 18.0133 44.7421C16.2853 42.867 13.4005 41.287 12.42 41.9758C11.9255 42.3216 11.1496 43.4405 11.4878 45.6642V45.667Z" fill="#E3E3E3"/>
<path d="M13.2471 31.4504C13.6507 34.1212 14.6113 35.4565 15.5236 36.7019C16.0323 37.3991 16.9901 38.712 18.559 38.9538C20.5996 39.2686 22.2793 37.5509 23.1092 36.7019C25.1185 34.6469 26.6107 31.1777 25.3857 29.1986C25.1839 28.8753 24.9963 28.566 24.6269 28.448C23.0125 27.9251 20.9236 31.9761 19.3178 31.4504C19.0364 31.3577 19.0279 31.2087 18.559 30.6998C17.155 29.1733 14.8074 27.8885 14.0088 28.448C13.6052 28.7291 12.9771 29.64 13.2499 31.4504H13.2471Z" fill="#E3E3E3"/>
<path d="M26.9062 0.292725C27.0227 10.8267 27.1734 21.3606 27.2359 31.8945C27.2643 36.6765 23.2228 38.9452 20.2471 42.0517C21.0174 42.212 21.4153 42.4341 21.654 42.3216C23.3934 41.4923 24.8741 38.9537 26.909 40.2413C28.9866 41.5541 28.188 44.2783 28.0999 46.4345C27.8896 51.6298 23.76 54.205 20.4035 57.0865C21.1623 58.4472 21.7421 57.7809 22.2736 57.4042C24.0328 56.1616 25.7722 53.6511 27.9123 54.7757C30.311 56.0351 29.2794 59.091 29.2481 61.3991C29.2055 64.4774 28.0004 67.2381 25.7495 69.3101C22.9528 71.8852 19.3235 73.8334 20.3381 78.6464C20.4745 79.2958 19.9345 80.083 18.9824 79.993C18.0616 79.9058 17.6779 79.0821 17.8086 78.4383C18.7181 73.9037 15.3758 72.0258 12.6957 69.5659C11.394 68.3711 10.3822 66.645 9.75125 64.9666C8.56041 61.7898 7.6623 57.6797 9.87062 55.4054C12.5223 52.6756 14.5573 57.5251 17.6182 58.048C17.5898 55.8861 15.7026 55.4504 14.634 54.517C12.4711 52.6306 10.7545 50.4744 10.3538 47.6097C10.007 45.1104 9.06062 41.9955 11.3542 40.3368C13.4687 38.8075 15.0518 42.0517 17.1379 42.4959C17.2743 42.1754 17.55 41.6441 17.5074 41.616C11.4423 37.7027 10.4277 31.8776 10.8654 25.2064C11.4082 16.9215 10.3595 8.58886 11.3968 0.301159H13.6108C13.679 7.68362 13.7728 15.0633 13.7984 22.4457C13.8069 25.0884 13.9434 27.5089 18.0388 27.5258V0.292725H20.2528V27.7619C24.3199 26.9326 24.3284 24.7651 24.3455 22.4429C24.4023 15.0605 24.5615 7.678 24.6808 0.292725H26.8948H26.9062ZM26.5595 56.7773C22.157 58.3685 21.0429 62.1497 19.2723 65.6132C16.9115 61.2145 14.4294 58.405 11.826 57.1849C11.2149 63.5469 14.7335 69.8864 18.9853 70.0776C23.0409 70.2631 26.8209 63.9545 26.5595 56.7773ZM12.8577 42.4397C12.69 48.3294 15.606 53.3813 19.0194 53.5078C22.7141 53.6427 25.7779 48.3125 25.2606 42.6056C21.5233 43.1622 21.2248 47.1542 18.9114 49.3527C17.2317 46.606 16.5211 43.5642 12.8577 42.4397ZM13.7927 29.1507C12.852 33.0837 14.4606 35.7657 17.6665 37.8151C19.8379 39.2039 21.1055 37.5424 22.4071 36.3842C24.7064 34.3375 25.218 31.9029 24.2915 28.8639C21.2731 30.2471 20.6593 32.7014 19.3064 34.7142C17.2146 32.8082 17.1635 29.5499 13.7927 29.1507Z" fill="#707070"/>
<path d="M57.9193 0.292725C48.8899 6.89084 41.3271 14.5769 37.7631 25.5129C31.7037 44.1012 37.8597 63.9995 53.5424 75.8969C54.6764 76.7572 55.7905 77.6484 57.1206 78.6885C53.2838 79.9283 51.2062 77.5387 49.0491 75.6833C27.2132 56.8954 27.1478 23.396 48.8729 4.18075C50.3792 2.84819 51.948 1.58592 53.4884 0.292725C54.9663 0.292725 56.4414 0.292725 57.9193 0.292725Z" fill="#707070"/>
<path d="M77.996 10.6916C79.0362 10.7057 80.7102 10.2053 80.7329 11.6025C80.7727 14.1692 78.3484 13.2106 76.9756 13.427C65.1553 15.2797 56.4443 23.5168 54.2672 35.06C52.1669 46.1871 57.3822 57.3648 67.2784 63.0127C70.5269 64.8653 74.0227 65.8521 77.7231 66.3806C78.9083 66.5493 81.3326 65.8296 80.8693 68.1883C80.4828 70.1478 78.3654 69.2594 77.1064 69.0598C65.3941 67.2128 57.061 60.8958 52.9456 49.8699C48.7166 38.5432 51.266 28.2904 59.4967 19.5163C64.442 14.2451 70.6775 11.2736 77.996 10.6888V10.6916Z" fill="#707070"/>
<path d="M80.5936 40.272C80.5936 41.7283 80.693 43.1958 80.5708 44.6436C80.4401 46.1786 81.3609 48.2617 79.7523 49.1136C78.0868 49.9963 76.4043 48.7396 74.9747 47.6938C69.228 43.4881 69.731 34.7422 75.9325 31.4249C78.7718 29.904 81.0085 29.6622 80.622 34.2643C80.4543 36.2519 80.5935 38.2704 80.5964 40.2748L80.5936 40.272Z" fill="#707070"/>
</svg>

<svg width="81" height="80" fill="none" xmlns="http://www.w3.org/2000/svg"><path d="M81 75.082V3.394C81-.261 80.432.02 75.316.02c-.776-.045-13.605 0-14.393 0-14.6 0-25.829 19.994-26.951 41.098-1.123 21.105 20.008 38.878 26.951 38.878.788 0 15.038-.087 15.814-.135 3.695 0 4.263 0 4.263-4.78zm-70.894-15.08c.6 3.953 2.021 5.929 3.368 7.776.753 1.032 2.172 2.974 4.49 3.331 3.022.467 5.509-2.077 6.74-3.331 2.975-3.042 5.183-8.175 3.367-11.107-.295-.481-.577-.934-1.122-1.11-2.39-.774-5.48 5.222-7.862 4.44-.417-.137-.429-.356-1.122-1.11-2.08-2.257-5.554-4.16-6.739-3.33-.597.418-1.529 1.765-1.122 4.44h.002zm1.382-14.335c.497 3.284 1.677 4.923 2.796 6.455.626.857 1.805 2.468 3.73 2.766 2.509.388 4.572-1.723 5.593-2.766 2.47-2.525 4.303-6.79 2.796-9.224-.247-.4-.48-.776-.932-.922-1.984-.644-4.55 4.338-6.526 3.688-.346-.115-.355-.295-.932-.922-1.728-1.875-4.613-3.455-5.593-2.766-.495.346-1.27 1.465-.932 3.688v.003zm1.759-14.217c.404 2.671 1.364 4.006 2.277 5.252.508.697 1.466 2.01 3.035 2.252 2.04.315 3.72-1.403 4.55-2.252 2.01-2.055 3.502-5.524 2.277-7.503-.202-.324-.39-.633-.76-.751-1.614-.523-3.702 3.528-5.308 3.002-.282-.092-.29-.241-.759-.75-1.404-1.527-3.752-2.811-4.55-2.252-.404.281-1.032 1.192-.76 3.002h-.002z" fill="#E3E3E3"/><path d="M26.906.293c.117 10.534.267 21.068.33 31.602.028 4.781-4.013 7.05-6.989 10.157.77.16 1.168.382 1.407.27 1.74-.83 3.22-3.368 5.255-2.08 2.078 1.312 1.279 4.036 1.19 6.193-.21 5.195-4.339 7.77-7.695 10.651.758 1.361 1.338.695 1.87.318 1.759-1.242 3.498-3.753 5.638-2.628 2.399 1.26 1.367 4.315 1.336 6.623-.043 3.078-1.248 5.84-3.498 7.911-2.797 2.575-6.427 4.523-5.412 9.336.136.65-.404 1.437-1.356 1.347-.92-.087-1.304-.91-1.173-1.555.91-4.534-2.433-6.412-5.113-8.872-1.302-1.195-2.314-2.921-2.945-4.6-1.19-3.176-2.089-7.286.12-9.56 2.651-2.73 4.686 2.12 7.747 2.642-.028-2.162-1.915-2.598-2.984-3.531-2.163-1.886-3.88-4.043-4.28-6.907-.347-2.5-1.293-5.614 1-7.273 2.115-1.53 3.698 1.715 5.784 2.159.136-.32.412-.852.37-.88-6.066-3.913-7.08-9.738-6.643-16.41.543-8.284-.505-16.617.532-24.905h2.214c.068 7.383.162 14.762.187 22.145.009 2.642.145 5.063 4.24 5.08V.293h2.215v27.469c4.067-.83 4.075-2.997 4.093-5.32.056-7.382.215-14.764.335-22.15h2.225zm-.346 56.484c-4.403 1.591-5.517 5.373-7.288 8.836-2.36-4.398-4.843-7.208-7.446-8.428-.611 6.362 2.907 12.701 7.16 12.893 4.055.185 7.835-6.123 7.573-13.3zM12.857 42.44c-.168 5.89 2.748 10.941 6.161 11.068 3.695.135 6.759-5.196 6.242-10.902-3.738.556-4.036 4.548-6.35 6.747-1.68-2.747-2.39-5.789-6.053-6.913zm.935-13.29c-.941 3.934.668 6.616 3.873 8.665 2.172 1.389 3.44-.273 4.741-1.43 2.3-2.047 2.811-4.482 1.884-7.521-3.018 1.383-3.632 3.837-4.985 5.85-2.091-1.906-2.143-5.164-5.513-5.563z" fill="#707070"/><path d="M57.92.293c-9.03 6.598-16.593 14.284-20.157 25.22-6.06 18.588.097 38.486 15.78 50.384 1.133.86 2.248 1.751 3.578 2.791-3.837 1.24-5.915-1.15-8.072-3.005-21.836-18.788-21.901-52.287-.176-71.502 1.506-1.333 3.075-2.595 4.615-3.888h4.431z" fill="#707070"/><path d="M77.996 10.692c1.04.014 2.714-.487 2.737.91.04 2.567-2.385 1.609-3.757 1.825-11.82 1.853-20.532 10.09-22.709 21.633-2.1 11.127 3.115 22.305 13.011 27.953 3.249 1.852 6.745 2.84 10.445 3.368 1.185.168 3.61-.551 3.146 1.807-.386 1.96-2.504 1.071-3.763.872-11.712-1.847-20.045-8.164-24.16-19.19-4.23-11.327-1.68-21.58 6.55-30.354 4.946-5.27 11.181-8.242 18.5-8.827v.003z" fill="#707070"/><path d="M80.594 40.272c0 1.456.099 2.924-.023 4.372-.13 1.535.79 3.618-.819 4.47-1.665.882-3.348-.374-4.777-1.42-5.747-4.206-5.244-12.952.958-16.27 2.839-1.52 5.075-1.762 4.689 2.84-.168 1.988-.028 4.006-.026 6.01l-.002-.002z" fill="#707070"/></svg>
